symbolic/32x32/apps/x3-reunion.svg

<svg width="32" height="32" version="1.1" xmlns="http://www.w3.org/2000/svg">
 <path d="m7 6h7l3 4.5 4-4.5h9l-9 11 6 11h-9l-3-5-4 5h-9l10-11.5z" style="opacity:.2"/>
 <path d="m7 5h7l3 4.5 4-4.5h9l-9 11 6 11h-9l-3-5-4 5h-9l10-11.5z" style="fill:#88bfe1"/>
 <path d="m7 5 0.4765625 1h6.5234375l3 4.5 4-4.5h8.181641l0.818359-1h-9l-4 4.5-3-4.5h-7zm4.691406 10.853516-9.691406 11.146484h0.8691406l9.1308594-10.5-0.308594-0.646484zm9.636719 0.746093-0.328125 0.400391 5.455078 10h0.544922l-5.671875-10.400391z" style="fill:#ffffff;opacity:.2"/>
 <circle cx="24.000031" cy="23" r="8" style="fill:#d07336"/>
 <path d="m31.979031 23.424a8 8 0 0 1-7.979 7.576 8 8 0 0 1-7.979-7.424 8 8 0 0 0-0.021 0.424 8 8 0 0 0 8 8 8 8 0 0 0 8-8 8 8 0 0 0-0.02148-0.57617z" style="opacity:.3"/>
 <path d="m24 20s-0.47846-0.009964-0.972656 0.240234c-0.494296 0.247198-1.027344 0.843073-1.027344 1.759766h1c0-0.999992 1-1 1-1s1 8e-6 1 1c0 0.374997-0.128284 0.656733-0.363281 0.957031-0.011292 0.014424-0.031094 0.028559-0.042969 0.042969h-1.59375v1h1.59375c0.011875 0.01441 0.031677 0.028545 0.042969 0.042969 0.234997 0.300298 0.363281 0.582034 0.363281 0.957031 0 0.999992-1 1-1 1s-1-8e-6 -1-1h-1c0 0.916693 0.533048 1.512568 1.027344 1.759766 0.494196 0.250198 0.972656 0.240234 0.972656 0.240234s0.478461 0.006864 0.972656-0.240234c0.494297-0.247198 1.027344-0.843073 1.027344-1.759766 0-0.590318-0.223067-1.093139-0.523438-1.5 0.300371-0.406861 0.523438-0.909682 0.523438-1.5 0-0.916693-0.533047-1.512568-1.027344-1.759766-0.494195-0.247098-0.972656-0.240234-0.972656-0.240234z" style="fill-rule:evenodd;fill:#ffffff"/>
</svg>

<svg width="32" height="32" xmlns="http://www.w3.org/2000/svg"><path d="M7 6h7l3 4.5L21 6h9l-9 11 6 11h-9l-3-5-4 5H2l10-11.5z" style="opacity:.2"/><path d="M7 5h7l3 4.5L21 5h9l-9 11 6 11h-9l-3-5-4 5H2l10-11.5z" style="fill:#88bfe1"/><path d="m7 5 .477 1H14l3 4.5L21 6h8.182L30 5h-9l-4 4.5L14 5H7zm4.691 10.854L2 27h.87L12 16.5l-.309-.646zm9.637.746L21 17l5.455 10H27l-5.672-10.4z" style="fill:#fff;opacity:.2"/><circle cx="24" cy="23" r="8" style="fill:#d07336"/><path d="M31.979 23.424A8 8 0 0 1 24 31a8 8 0 0 1-7.979-7.424A8 8 0 0 0 16 24a8 8 0 0 0 8 8 8 8 0 0 0 8-8 8 8 0 0 0-.021-.576z" style="opacity:.3"/><path d="M24 20s-.478-.01-.973.24C22.533 20.487 22 21.083 22 22h1c0-1 1-1 1-1s1 0 1 1c0 .375-.128.657-.363.957-.012.014-.031.029-.043.043H23v1h1.594c.012.014.031.029.043.043.235.3.363.582.363.957 0 1-1 1-1 1s-1 0-1-1h-1c0 .917.533 1.513 1.027 1.76.495.25.973.24.973.24s.478.007.973-.24C25.467 26.513 26 25.917 26 25c0-.59-.223-1.093-.523-1.5.3-.407.523-.91.523-1.5 0-.917-.533-1.513-1.027-1.76C24.478 19.993 24 20 24 20z" style="fill-rule:evenodd;fill:#fff"/></svg>
